X: 1
T: Crehan's Kitchen
M:4/4
L:1/8
R: reel
K: D
|:~D3F AF~F2|AFBF AFEF|DFDF AF~F2|BFAF EDFE:|
fd~d2 edBc|dedB ABde|fd~d2 edBc|dBAF EFD2|
fd~d2 edBc|dedB ABde|~f3d dBAB|dBAF EDFE|
